X: 23340
T: Leipzig, The
R: jig
M: 6/8
K: Ddorian
|:FED ADA|GAB {d}cBc|dfe dcA|BAG FGA|
~F3 A2E|GAB {d}cBc|dfe dcA|1 BAF DA,D:|2 BAF D2d||
|:dcA eAe|~f3 eAe|def dcA|BAG FGA|
[1 ~d3 eAe|f/g/af eAe|def dcA|BAF D2d:|
[2 dcA eAe|f/g/af e2_b|agf edc|~_B3 AGE||

